!!!OTL: As I roved out, S. 42
!!!id: I0505
**kern
*clefG2
*k[f#]
*D:
{8A
8c
8d
8e
=1
8.d
16c
8A
8B
8c
8d
=2
8.e
16d
8c}
=3
{8d
8e
8cc
=4
8.a
16g
16a
16g
8e
8d
16e
16f#
=5
4g}
=6
{16d
8e
8f#
8g
16d
8a
8b
=7
8.a
16g
8e
8c
8d
8e
=8
4.d
8c
8a}
=9
{8A
16d
8g
8a
8b
16d
=10
*M4/4
8.a
16g
16d
8a
8g
8e
16d
16d
8.d
=11
4d}
==
*-
!!!minrhy: 16
!!!meters: 3/4 4/4 ]  ZZ[4
!!!cut: As I roved out, S. 42
!!!reg: Irland
!!!trd: O BOYLE, Sean: 25 Irish Folksongs, Dublin 1976
!!!rhy1: X_X_X_X_  X_.XX_X_X_X_  X_.XX_
!!!rhy2: X_X_X_  X_.XXXX_X_XX  X__
!!!key: I0505  16  D 3/4 4/4 ]  ZZ[4
!!!mod: HEPTATONIK MIXOLYDISCH]  AMBITUS[10b
!!!kad: -7b451
!!!akz: 12_54_515_51_
!!!fot: 'a__b__c__d__
!!!for: 'a__b__c__d__
!!!fok: 'Ma_~a_$a_^a_
!! PHRAS[AUFTAKTIG]
!!!fkt: Liebeslied
!!!bem: 4/4-Takt in Zeilen 3-4 in der Quelle nicht angegeben
!! IRISCHE VKL.
!! PR[23] 2K[5] 2G[18] 3K[7] 3G[0] 4A[0] 4Ü[0] 5A[2] 6K[0] 6G[0]
!! 7K[0] 7G[0] 8A[0] MEHR[0] SI[32] ABS[57] SR[23] SP[9]
!! ST[24] 2k[11] 2g[30] 3k[5] 3g[0] 4d[0] 4ü[0] 5d[0] 6k[0] 6g[0]
!! 7k[0] 7g[0] 8d[0] mehr[0] si[46] dm[-14] sr[40] sp[5]
!! 1F[29] 2F[52] 3F[9] 4F[0] LF[0] 2P[5] 3P[6] 4P[0] TRI[0] DF[5] AB[66]
!! TF[0] U3K[0] U3[0] U4[0] U4Ü[0] U5[0] U6K[0] U6[0] U7K[0] U7[0]
!! N1[12] N2K[0] N2[14] N3K[0] N3[5] N4[12] N4Ü[0] N5[19] N6K[0] N6[16]
!!!n7k: 9] N7[0] O1[12] O2K[0] O2[2] O3K[0] O3[0] HÖ[0
